src/topics/icons/polymer.svg

<svg height="178" preserveAspectRatio="xMidYMid" viewBox="0 0 256 178" width="256" xmlns="http://www.w3.org/2000/svg"><g fill="none"><g transform="translate(50.398438)"><path d="m103.202016 177.979687-102.40685194-177.3749995h51.20695314l102.4068518 177.3749995z" fill="#ff4081"/><path d="m103.202016 177.979687 25.600453-44.34375 25.6065 44.34375z" fill="#fff" fill-opacity=".2"/><path d="m77.6015625 133.635937 25.6004535 44.34375 25.600453-44.34375h-51.1998987z" fill="#fff" fill-opacity=".1"/><g fill="#000"><path d="m52.0011094 89.2921875 25.6004531 44.3437495 25.6004535-44.3437495h-51.1998988z" fill-opacity=".1"/><path d="m52.0011094 89.2921875 25.6004531-44.34375 25.6004535 44.34375h-51.1998988z" fill-opacity=".2"/><path d="m26.4016641 44.9484375 25.6004531 44.34375 25.6004531-44.34375h-51.1998984z" fill-opacity=".3"/><path d="m26.4016641 44.9484375 25.6004531-44.34375 25.6004531 44.34375h-51.1998984z" fill-opacity=".4"/><path d="m.79516406.6046875 25.60650004 44.34375 25.6004531-44.34375z" fill-opacity=".5"/></g></g><g transform="translate(-1 44.34375)"><path d="m52.1936016 133.635937-51.20695316-88.6874995 25.60649996-44.34375 76.8063986 133.0312495h-51.2069532z" fill="#536dfe"/><path d="m52.1936016 133.635938 25.6065-44.3437505 25.6004534 44.3437505z" fill="#fff" fill-opacity=".2"/><path d="m26.5931484 89.2921875 25.6004532 44.3437505 25.6065-44.3437505z" fill="#fff" fill-opacity=".1"/><path d="m26.5931484 89.2921875 25.6004532-44.34375 25.6065 44.34375z"/><g fill="#000"><path d="m.98664844 44.9484375 25.60649996 44.34375 25.6004532-44.34375z" fill-opacity=".1"/><path d="m.98664844 44.9484375 25.60649996-44.34375 25.6004532 44.34375z" fill-opacity=".2"/></g></g><g transform="translate(25.203125)"><path d="m25.9904766 89.2921875-25.60045316-44.34375 25.60045316-44.34375 25.6065 44.34375z" fill="#303f9f"/><path d="m51.5969766 44.9484375-25.6065-44.34375-25.60045316 44.34375z" fill="#000" fill-opacity=".2"/></g><g transform="translate(178.390625 88.6875)"><path d="m26.4157734 89.2921875-25.60649996-44.34375 25.60649996-44.34375 25.6004532 44.34375z" fill="#3f51b5"/><path d="m52.0162266 44.9484375-25.6004532 44.34375-25.60649996-44.34375z" fill="#000" fill-opacity=".2"/></g><g transform="translate(153.195312)"><path d="m77.2115391 133.635937-76.80639847-133.0312495h51.20695307l51.2069533 88.6875-25.6065001 44.3437495z" fill="#7986cb"/><path d="m51.6110859 89.2921875 25.6004532 44.3437505 25.6064999-44.3437505z" fill="#fff" fill-opacity=".2"/><path d="m51.6110859 89.2921875 25.6004532-44.34375 25.6064999 44.34375z" fill="#fff" fill-opacity=".1"/><g fill="#000"><path d="m26.0045859 44.9484375 25.6065-44.34375 25.6004532 44.34375z" fill-opacity=".1"/><path d="m.40514063.6046875 25.60045317 44.34375 25.6064999-44.34375z" fill-opacity=".2"/></g></g></g></svg>

<?xml version="1.0" encoding="UTF-8" standalone="no"?>
<svg width="256px" height="178px" viewBox="0 0 256 178" version="1.1" xmlns="http://www.w3.org/2000/svg" xmlns:xlink="http://www.w3.org/1999/xlink" preserveAspectRatio="xMidYMid">
	<g transform="translate(-1.000000, 0.000000)" fill="none">
		<g transform="translate(51.398438, 0.000000)">
			<path d="M103.202016,177.979687 L0.795164062,0.6046875 L52.0021172,0.6046875 L154.408969,177.979687 L103.202016,177.979687 L103.202016,177.979687 Z" fill="#FF4081"></path>
			<path d="M103.202016,177.979687 L128.802469,133.635937 L154.408969,177.979687 L103.202016,177.979687 L103.202016,177.979687 Z" fill-opacity="0.2" fill="#FFFFFF"></path>
			<path d="M77.6015625,133.635937 L103.202016,177.979687 L128.802469,133.635937 L77.6025703,133.635937 L77.6015625,133.635937 L77.6015625,133.635937 Z" fill-opacity="0.1" fill="#FFFFFF"></path>
			<path d="M52.0011094,89.2921875 L77.6015625,133.635937 L103.202016,89.2921875 L52.0021172,89.2921875 L52.0011094,89.2921875 L52.0011094,89.2921875 Z" fill-opacity="0.1" fill="#000000"></path>
			<path d="M52.0011094,89.2921875 L77.6015625,44.9484375 L103.202016,89.2921875 L52.0021172,89.2921875 L52.0011094,89.2921875 L52.0011094,89.2921875 Z" fill-opacity="0.2" fill="#000000"></path>
			<path d="M26.4016641,44.9484375 L52.0021172,89.2921875 L77.6025703,44.9484375 L26.4026719,44.9484375 L26.4016641,44.9484375 L26.4016641,44.9484375 Z" fill-opacity="0.3" fill="#000000"></path>
			<path d="M26.4016641,44.9484375 L52.0021172,0.6046875 L77.6025703,44.9484375 L26.4026719,44.9484375 L26.4016641,44.9484375 L26.4016641,44.9484375 Z" fill-opacity="0.4" fill="#000000"></path>
			<path d="M0.795164063,0.6046875 L26.4016641,44.9484375 L52.0021172,0.6046875 L0.795164063,0.6046875 L0.795164063,0.6046875 Z" fill-opacity="0.5" fill="#000000"></path>
		</g>
		<g transform="translate(0.000000, 44.343750)">
			<path d="M52.1936016,133.635937 L0.986648438,44.9484375 L26.5931484,0.6046875 L103.399547,133.635937 L52.1925938,133.635937 L52.1936016,133.635937 L52.1936016,133.635937 Z" fill="#536DFE"></path>
			<path d="M52.1936016,133.635938 L77.8001016,89.2921875 L103.400555,133.635938 L52.1936016,133.635938 L52.1936016,133.635938 Z" fill-opacity="0.2" fill="#FFFFFF"></path>
			<path d="M26.5931484,89.2921875 L52.1936016,133.635938 L77.8001016,89.2921875 L26.5931484,89.2921875 L26.5931484,89.2921875 Z" fill-opacity="0.1" fill="#FFFFFF"></path>
			<path d="M26.5931484,89.2921875 L52.1936016,44.9484375 L77.8001016,89.2921875 L26.5931484,89.2921875 L26.5931484,89.2921875 Z"></path>
			<path d="M0.986648437,44.9484375 L26.5931484,89.2921875 L52.1936016,44.9484375 L0.986648437,44.9484375 L0.986648437,44.9484375 Z" fill-opacity="0.1" fill="#000000"></path>
			<path d="M0.986648437,44.9484375 L26.5931484,0.6046875 L52.1936016,44.9484375 L0.986648437,44.9484375 L0.986648437,44.9484375 Z" fill-opacity="0.2" fill="#000000"></path>
		</g>
		<g transform="translate(26.203125, 0.000000)">
			<path d="M25.9904766,89.2921875 L0.390023438,44.9484375 L25.9904766,0.6046875 L51.5969766,44.9484375 L25.9904766,89.2921875 L25.9904766,89.2921875 Z" fill="#303F9F"></path>
			<path d="M51.5969766,44.9484375 L25.9904766,0.6046875 L0.390023438,44.9484375 L51.5969766,44.9484375 L51.5969766,44.9484375 Z" fill-opacity="0.2" fill="#000000"></path>
		</g>
		<g transform="translate(179.390625, 88.687500)">
			<path d="M26.4157734,89.2921875 L0.809273437,44.9484375 L26.4157734,0.6046875 L52.0162266,44.9484375 L26.4157734,89.2921875 L26.4157734,89.2921875 Z" fill="#3F51B5"></path>
			<path d="M52.0162266,44.9484375 L26.4157734,89.2921875 L0.809273437,44.9484375 L52.0162266,44.9484375 L52.0162266,44.9484375 Z" fill-opacity="0.2" fill="#000000"></path>
		</g>
		<g transform="translate(154.195312, 0.000000)">
			<path d="M77.2115391,133.635937 L0.405140625,0.6046875 L51.6120937,0.6046875 L102.819047,89.2921875 L77.2125469,133.635937 L77.2115391,133.635937 L77.2115391,133.635937 Z" fill="#7986CB"></path>
			<path d="M51.6110859,89.2921875 L77.2115391,133.635938 L102.818039,89.2921875 L51.6110859,89.2921875 L51.6110859,89.2921875 Z" fill-opacity="0.2" fill="#FFFFFF"></path>
			<path d="M51.6110859,89.2921875 L77.2115391,44.9484375 L102.818039,89.2921875 L51.6110859,89.2921875 L51.6110859,89.2921875 Z" fill-opacity="0.1" fill="#FFFFFF"></path>
			<path d="M26.0045859,44.9484375 L51.6110859,0.6046875 L77.2115391,44.9484375 L26.0045859,44.9484375 L26.0045859,44.9484375 Z" fill-opacity="0.1" fill="#000000"></path>
			<path d="M0.405140625,0.6046875 L26.0055938,44.9484375 L51.6120937,0.6046875 L0.405140625,0.6046875 L0.405140625,0.6046875 Z" fill-opacity="0.2" fill="#000000"></path>
		</g>
	</g>
</svg>
